svg/contact/message_4_line.svg

<?xml version="1.0" encoding="UTF-8"?>
<svg width="24px" height="24px" viewBox="0 0 24 24" version="1.1" xmlns="http://www.w3.org/2000/svg" xmlns:xlink="http://www.w3.org/1999/xlink">
    <title>message_3_line</title>
    <g id="页面-1" stroke="none" stroke-width="1" fill="none" fill-rule="evenodd">
        <g id="Contact" transform="translate(-816.000000, 0.000000)" fill-rule="nonzero">
            <g id="message_3_line" transform="translate(816.000000, 0.000000)">
                 <path d="M24,0 L24,24 L0,24 L0,0 L24,0 Z M12.5934901,23.257841 L12.5819402,23.2595131 L12.5108777,23.2950439 L12.4918791,23.2987469 L12.4918791,23.2987469 L12.4767152,23.2950439 L12.4056548,23.2595131 C12.3958229,23.2563662 12.3870493,23.2590235 12.3821421,23.2649074 L12.3780323,23.275831 L12.360941,23.7031097 L12.3658947,23.7234994 L12.3769048,23.7357139 L12.4804777,23.8096931 L12.4953491,23.8136134 L12.4953491,23.8136134 L12.5071152,23.8096931 L12.6106902,23.7357139 L12.6232938,23.7196733 L12.6232938,23.7196733 L12.6266527,23.7031097 L12.609561,23.275831 C12.6075724,23.2657013 12.6010112,23.2592993 12.5934901,23.257841 L12.5934901,23.257841 Z M12.8583906,23.1452862 L12.8445485,23.1473072 L12.6598443,23.2396597 L12.6498822,23.2499052 L12.6498822,23.2499052 L12.6471943,23.2611114 L12.6650943,23.6906389 L12.6699349,23.7034178 L12.6699349,23.7034178 L12.678386,23.7104931 L12.8793402,23.8032389 C12.8914285,23.8068999 12.9022333,23.8029875 12.9078286,23.7952264 L12.9118235,23.7811639 L12.8776777,23.1665331 C12.8752882,23.1545897 12.8674102,23.1470016 12.8583906,23.1452862 L12.8583906,23.1452862 Z M12.1430473,23.1473072 C12.1332178,23.1423925 12.1221763,23.1452606 12.1156365,23.1525954 L12.1099173,23.1665331 L12.0757714,23.7811639 C12.0751323,23.7926639 12.0828099,23.8018602 12.0926481,23.8045676 L12.108256,23.8032389 L12.3092106,23.7104931 L12.3186497,23.7024347 L12.3186497,23.7024347 L12.3225043,23.6906389 L12.340401,23.2611114 L12.337245,23.2485176 L12.337245,23.2485176 L12.3277531,23.2396597 L12.1430473,23.1473072 Z" id="MingCute" fill-rule="nonzero"></path>
                <path d="M19,3 C20.6569,3 22,4.34315 22,6 L22,16 C22,17.6569 20.6569,19 19,19 L7.33333,19 L4,21.5 C3.17596,22.118 2,21.5301 2,20.5 L2,6 C2,4.34315 3.34315,3 5,3 L19,3 Z M19,5 L5,5 C4.44772,5 4,5.44772 4,6 L4,19 L6.13333,17.4 C6.47953,17.1404 6.90059,17 7.33333,17 L19,17 C19.5523,17 20,16.5523 20,16 L20,6 C20,5.44772 19.5523,5 19,5 Z M11,12 C11.5523,12 12,12.4477 12,13 C12,13.51285 11.613973,13.9355092 11.1166239,13.9932725 L11,14 L8,14 C7.44772,14 7,13.5523 7,13 C7,12.48715 7.38604429,12.0644908 7.88337975,12.0067275 L8,12 L11,12 Z M16,8 C16.5523,8 17,8.44772 17,9 C17,9.55228 16.5523,10 16,10 L8,10 C7.44772,10 7,9.55228 7,9 C7,8.44772 7.44772,8 8,8 L16,8 Z" id="形状" fill="#09244B"></path>
            </g>
        </g>
    </g>
</svg>

<svg xmlns="http://www.w3.org/2000/svg" width="24" height="24"><g fill="none" fill-rule="nonzero"><path d="M24 0v24H0V0h24ZM12.593 23.258l-.011.002-.071.035-.02.004-.014-.004-.071-.035c-.01-.004-.019-.001-.024.005l-.004.01-.017.428.005.02.01.013.104.074.015.004.012-.004.104-.074.012-.016.004-.017-.017-.427c-.002-.01-.009-.017-.017-.018Zm.265-.113-.013.002-.185.093-.01.01-.003.011.018.43.005.012.008.007.201.093c.012.004.023 0 .029-.008l.004-.014-.034-.614c-.003-.012-.01-.02-.02-.022Zm-.715.002a.023.023 0 0 0-.027.006l-.006.014-.034.614c0 .012.007.02.017.024l.015-.002.201-.093.01-.008.004-.011.017-.43-.003-.012-.01-.01-.184-.092Z"/><path fill="#09244B" d="M19 3a3 3 0 0 1 3 3v10a3 3 0 0 1-3 3H7.333L4 21.5c-.824.618-2 .03-2-1V6a3 3 0 0 1 3-3h14Zm0 2H5a1 1 0 0 0-1 1v13l2.133-1.6a2 2 0 0 1 1.2-.4H19a1 1 0 0 0 1-1V6a1 1 0 0 0-1-1Zm-8 7a1 1 0 0 1 .117 1.993L11 14H8a1 1 0 0 1-.117-1.993L8 12h3Zm5-4a1 1 0 1 1 0 2H8a1 1 0 0 1 0-2h8Z"/></g></svg>
